src/assets/img/doubleShadow.svg

<svg width="872" height="820" fill="none" xmlns="http://www.w3.org/2000/svg"><g filter="url(#a)"><path d="M93.345 355.831c60.327-131.056 98.506-176.45 110.055-182.765 0 0 37.195-129.83 68.275 10.587 31.081 140.417 153.364-57.393 153.364-57.393l35.666 229.571-139.119 83.433 139.119 50.855-64.199 236.258-220.11-200.039 145.19-87.074-228.24-83.433Z" fill="#4B47FF"/></g><g filter="url(#b)"><path d="M429.832 380.593C256.67 332.738 503.52 93.049 503.52 93.049s58.806 203.742 139.862 109.17c81.057-94.571 24.382 94.573 98.182 180.897 73.801 86.324 14.93 111.386 14.93 111.386s-76.741 142.508-139.292 89.795c-62.551-52.714-135.186-86.048-162.69-132.448-24.8-41.839-8.27-56.813 17.724-59.924-12.386-3.176-26.466-6.928-42.404-11.332Z" fill="#00BEE8"/></g><defs><filter id="a" x=".345" y="25.377" width="553.36" height="794" filterUnits="userSpaceOnUse" color-interpolation-filters="sRGB"><feFlood flood-opacity="0" result="BackgroundImageFix"/><feBlend in="SourceGraphic" in2="BackgroundImageFix" result="shape"/><feGaussianBlur stdDeviation="46.5" result="effect1_foregroundBlur_389_6568"/></filter><filter id="b" x="275.223" y=".049" width="596.516" height="688.947" filterUnits="userSpaceOnUse" color-interpolation-filters="sRGB"><feFlood flood-opacity="0" result="BackgroundImageFix"/><feBlend in="SourceGraphic" in2="BackgroundImageFix" result="shape"/><feGaussianBlur stdDeviation="46.5" result="effect1_foregroundBlur_389_6568"/></filter></defs></svg>

<svg width="872" height="820" viewBox="0 0 872 820" fill="none" xmlns="http://www.w3.org/2000/svg">
<g filter="url(#filter0_f_389_6568)">
<path d="M93.3453 355.831C153.672 224.775 191.851 179.381 203.4 173.066C203.4 173.066 240.595 43.2355 271.675 183.653C302.756 324.07 425.039 126.26 425.039 126.26L460.705 355.831L321.586 439.264L460.705 490.119L396.506 726.377L176.396 526.338L321.586 439.264L93.3453 355.831Z" fill="#4B47FF"/>
</g>
<g filter="url(#filter1_f_389_6568)">
<path d="M429.832 380.593C256.67 332.738 503.52 93.0493 503.52 93.0493C503.52 93.0493 562.326 296.791 643.382 202.219C724.439 107.648 667.764 296.792 741.564 383.116C815.365 469.44 756.494 494.502 756.494 494.502C756.494 494.502 679.753 637.01 617.202 584.297C554.651 531.583 482.016 498.249 454.512 451.849C429.712 410.01 446.242 395.036 472.236 391.925C459.85 388.749 445.77 384.997 429.832 380.593Z" fill="#00BEE8"/>
</g>
<defs>
<filter id="filter0_f_389_6568" x="0.345337" y="25.377" width="553.36" height="794" filterUnits="userSpaceOnUse" color-interpolation-filters="sRGB">
<feFlood flood-opacity="0" result="BackgroundImageFix"/>
<feBlend mode="normal" in="SourceGraphic" in2="BackgroundImageFix" result="shape"/>
<feGaussianBlur stdDeviation="46.5" result="effect1_foregroundBlur_389_6568"/>
</filter>
<filter id="filter1_f_389_6568" x="275.223" y="0.0488281" width="596.516" height="688.947" filterUnits="userSpaceOnUse" color-interpolation-filters="sRGB">
<feFlood flood-opacity="0" result="BackgroundImageFix"/>
<feBlend mode="normal" in="SourceGraphic" in2="BackgroundImageFix" result="shape"/>
<feGaussianBlur stdDeviation="46.5" result="effect1_foregroundBlur_389_6568"/>
</filter>
</defs>
</svg>
